X:642
T:Polkett från Frändefors
R:Polkett
Z:C-G Magnusson, 2008-10-10
O:Frändefors, Dalsland
S:Efter Erik Johan Olsson i Holmen, Frändefors
N:Upptecknad efter Erik Fredriksson, Gärdhem
M:2/4
L:1/8
Q:100
K:G
DG Bd | ed/d/ d/c/B | dc/c/ c/B/A | ed/d/ d/c/B | DG Bd |
ed/d/ d/c/B | dc/c/ c/A/F/A/ | AG G2 :: d2 B>c | de A>B |
cc/B/ AB/c/ | dd G2 | d2 B>c | de A>B | ce c/A/F | AG G2 :|
(:musicend:)

(:music:)
